svgs/thin/high-definition.svg

<svg xmlns="http://www.w3.org/2000/svg" viewBox="0 0 576 512"><!-- Font Awesome Pro 6.0.0-alpha2 by @fontawesome - https://fontawesome.com License - https://fontawesome.com/license (Commercial License) --><path d="M512 32H64C28.654 32 0 60.652 0 96V416C0 451.346 28.654 480 64 480H512C547.346 480 576 451.346 576 416V96C576 60.652 547.346 32 512 32ZM560 416C560 442.467 538.467 464 512 464H64C37.533 464 16 442.467 16 416V96C16 69.533 37.533 48 64 48H512C538.467 48 560 69.533 560 96V416ZM264 160C259.594 160 256 163.578 256 168V248H128V168C128 163.578 124.406 160 120 160S112 163.578 112 168V344C112 348.422 115.594 352 120 352S128 348.422 128 344V264H256V344C256 348.422 259.594 352 264 352S272 348.422 272 344V168C272 163.578 268.406 160 264 160ZM384 160H328C323.594 160 320 163.578 320 168V344C320 348.422 323.594 352 328 352H384C436.938 352 480 308.938 480 256S436.938 160 384 160ZM384 336H336V176H384C428.125 176 464 211.891 464 256S428.125 336 384 336Z"/></svg>

<svg xmlns="http://www.w3.org/2000/svg" viewBox="0 0 576 512"><!--! Font Awesome Pro 6.3.0 by @fontawesome - https://fontawesome.com License - https://fontawesome.com/license (Commercial License) Copyright 2023 Fonticons, Inc. --><path d="M512 32H64C28.65 32 0 60.65 0 96v320c0 35.35 28.65 64 64 64h448c35.35 0 64-28.65 64-64V96C576 60.65 547.3 32 512 32zM560 416c0 26.47-21.53 48-48 48H64c-26.47 0-48-21.53-48-48V96c0-26.47 21.53-48 48-48h448c26.47 0 48 21.53 48 48V416zM264 160C259.6 160 256 163.6 256 168v80H128v-80C128 163.6 124.4 160 120 160S112 163.6 112 168v176C112 348.4 115.6 352 120 352S128 348.4 128 344v-80h128v80C256 348.4 259.6 352 264 352s8-3.578 8-8v-176C272 163.6 268.4 160 264 160zM384 160h-56C323.6 160 320 163.6 320 168v176c0 4.422 3.594 8 8 8H384c52.94 0 96-43.06 96-96S436.9 160 384 160zM384 336h-48v-160H384c44.13 0 80 35.89 80 80S428.1 336 384 336z"/></svg>
